img/Fill-1.svg

<svg width="422" height="408" fill="none" xmlns="http://www.w3.org/2000/svg"><path d="M375.91 353.17c-17.65-31-41.31-59.71-64.07-87.06 6.72 1.85 15.6.41 21.73-2.64 6.89-3.43 10.38-9.39 13.17-16.28.39-.98 2.98-11.05 4.87-10.51 3.48 1.01 4.49 23.21 4.86 25.93 1.34 9.69 3.41 19.18 5.58 28.71 4.68 20.56 9.77 41.17 13.86 61.85Zm-75.35-105.24c-4.92.34-8.64-6.62-11.81-10.21 5.31-.21 27.98-6.48 30.69-1.06 4.4 8.8-14.39 10.94-18.88 11.27ZM189.95 80.11c-.03 2.93-.03 14.27-4.61 10.75-3.1-2.38-4.79-13.04-5.75-16.31-1.96-6.66-4.97-14.87-4.63-21.9.65-13.3 9.38-4.22 11.37 2.87 2.2 7.83 3.65 16.43 3.62 24.59Zm35 58.29c5.79-3.63 3.47 3.14 1.29 6.37-6.12 9.08-7.47-1.44-1.29-6.37Zm-13.04-31.12c-1.22-6.6-.62-15.56 1.27-21.87 1.48-4.96 6.21-9.58 9.12-3.24 2.41 5.26-2.15 19.08-4.58 24.25-1.98 4.21-4.7 7.78-5.81.86Zm-25.15 2.02c1.09 12.67-9.94 17.31-9.58 2.84.22-8.85 7.65-15.38 9.58-2.84Zm23.32 76.35c.34 5.25-10.71 23.64-11.5 13.49-.23-2.89 10.91-18.23 11.5-13.49Zm-32.39-17.73c-3.78 2.45-14.17 10.63-18.1 8.98-6.27-2.65.9-10.07 3.69-11.98 3.04-2.09 11.4-7.2 15.6-6.56 7.7 1.18 2.7 6.79-1.19 9.56Zm-56.76-75.75c-9.37 3.99-12.67-7.17-14.69-13.83-1.32-4.36-6-13.48-1.09-16.59 8.83-5.6 18.68 23.19 15.78 30.42ZM152 93.48c-1.43-4.47-2.55-9.04-3.95-13.52-.83-2.66-5.2-12.05-4.67-14.28 1.66-7.07 7.37-3.54 10.7 1.65 3.41 5.32 6.97 16.43 6.61 22.54-.33 5.67-5.62 12.26-8.69 3.61Zm-17.29-47.03c-2.46-7.78 2.86-14.32 8.96-5.65 6.9 9.8-3.59 20.16-8.96 5.65Zm13.49 137.51c.36 7.12-23.76 17.84-29.21 14.57-7.18-4.32 7.56-9.69 11.66-11.82 3.46-1.79 16.54-10.9 17.55-2.75Zm-42.75-10.6c-6.12 1.72-12.4 4.11-18.69 4.98-8.65 1.18-8.58-3.67-2.11-8.77 5.66-4.46 16.23-5.53 22.98-8.23 5.39-2.16 21.03-14.51 24.93-10.68 8.79 8.61-21.33 21.01-27.11 22.7Zm1.63 27.73c.25 9.67-25.37 12.91-31.09 13.47 3.84-2.73 29.34-26.81 31.09-13.47Zm-48.47-48.77c-17.36-.58.08-13.22 5.93-15.55 4.25-1.7 14.24-5.47 18.56-1.91 11.34 9.32-20.02 17.63-24.49 17.46Zm1.97-35.35c.4-6 29.29-15.03 30.92-9.54 1.29 4.32-29.53 22.12-30.92 9.54Zm41.56 7.23c11.46-7.85 26.98-.47 9.8 8.64-3.38 1.78-12.2 6.6-15.94 3.85-5.29-3.88 3.11-10.53 6.14-12.49Zm316.17 26.4c-2.84-5.03-6.94-12.05-11.64-7.31-1.83 1.84-3.71 9.53-4.95 12.41-4.34 10.1-8.94 21.38-18.08 28.15-5.47 4.04-24.54 10.58-19.75-1.77 4.07-10.55 17.58-19.88 25.73-27.53 3.78-3.54 12.74-10.82 14.71-15.97 1.5-3.92-2.11-13.15-8.58-11.06-2.94.94-3.32 9.53-4.39 11.97-1.7 3.86-4.7 6.89-7.35 10.1-4.2 5.08-8.64 12.54-15.24 14.94-7.92 2.88-10.37-1.76-6.3-8.88 3.99-6.95 13-11.43 18.5-17.14 2.75-2.84 11.38-11.15 9.28-15.4-4.56-9.25-10.94 4.28-13.21 7.03-1.77 2.15-12.56 16.04-15.93 13.39-4.05-3.19 5.02-16.03 6.68-18.77 3.52-5.79 5.06-5.47.61-8.56-2.55-1.77-7.86-3.29-10.67-2.89-6.91.98-13.97 7.36-21.09 9.05-2.95.7-12.99.54-14.21 5.06-1.87 6.94 28.33 23.58 12.42 27.37-12.3 2.93-23.86-16.12-33.97-8.29-15.98 12.39 9.39 19.93 19.14 22.5 4.37 1.15 18.76 1.65 16.66 9.38-1.71 6.28-13.65 4.9-18.25 4.12-8.71-1.45-16.6-5.67-24.75-8.81-2.2-.84-11.04-5.64-13.69-4.6-3.79 1.48-8.39 16.3-6.18 19.8 2.72 4.3 17.7 2.8 22.77 2.91 8.56.18 19.05-.13 26.34 5.2 8.05 5.89-1.9 6.81-7.4 6.57-11.87-.52-23.98-4.71-35.61-6.99-4.06-.8-10.1-2.96-14.13-2.4-6.1.84-4.81 1.26-2.3 6.25 5.59 11.12 11.27 12.37 23.65 13.24 5.65.39 30.36-2.86 32.3 4.67-6.07 4.78-20.79 2.17-27.96 2.07-5.24-.08-13.74 1.13-18.29-1.41-6.21-3.45-14.06-16.35-18.61-21.52-8.07-9.18-16.01-18.31-24.84-26.8 9.64 1.37 18.66 4.42 28.42 2.01 10.68-2.64 20.91-9.77 22.48-21.24.58-4.2-.12-8.5-.42-12.69-.1-1.34-.03-2.71-.2-4.04-.69-5.8-.21-7.69-4.19-3.49-4.54 4.77-7.68 15.64-15.48 17.66-8.63 2.24-4-4.22-.49-8 8.66-9.32 18.14-17.44 19.57-31.24.78-7.53.34-15.8-1.02-23.31-1.3-7.22-2.61-7-5.05-1.08-5.29 12.82-13.55 23.39-24.52 31.96-2.1 1.65-6.82 5.67-10 3.4-2.87-2.06-.78-5.96 0-8.91 1.72-6.5 4.2-12.54 6.65-18.79 3.22-8.24 8.82-19.36 9.05-28.23.15-5.76-4.52-8.24-8.64-11.85-4.83-4.22-9.15-8.73-12.89-13.95-2.61-3.63-5.42-9.09-9.34-11.48-6.1-3.71-4.73.92-4.27 5.55.37 3.7 5.72 40.23-2.95 38.35-8.6-1.86-4.98-36.24-6.17-43.78-1.59-10-15.47-8.64-23.87-10.47-4.43-.96-8.49-1.47-12.69-3.1-1.59-.62-3.4-3.32-5.19-2.51-4.06 1.85 12.32 16.88 8.06 22.21-7.18 9-14.43-14.76-16.48-19.1-1.73-3.64-3.79-7.91-6.22-11.08-3.74-4.89-4.25-3.71-9.76-2.07-5.51 1.64-18.67 1.5-22.83 5.14-4.02 3.53 1.11 6.11 3.9 9.32 2.64 3.03 11.2 13.32 3.98 15.45-2.6.77-12.05-6.92-14.5-8.5-5.2-3.36-4.08-2.6-8.44-1.5-5.07 1.28-10.78 2.92-15.66 4.65-6.12 2.17-7.57 3.19-2.99 7.58 5.38 5.13 13.43 8.23 16.08 15.57 1.29 3.17.44 6.72-3.57 6.79-4.28.07-6.22-5.77-7.87-8.9-2.08-3.96-5.99-13.27-11.07-14.1-3.17-.52-7.08 3.31-9.76 4.7-1.59.83-8.74 2.96-9.32 5.17-.63 2.42 7.62 7.67 9.86 10.25 5.7 6.59 11.77 14.73 13.93 22.67 1.66 12.94-13.33-2.79-15.69-6.72-2.63-4.35-11.04-26.86-18.57-24.58-2.05.62-3.32 5.62-5 7.25-2.06 2.01-4.7 2.81-7.16 4.06-3.66 1.84-7.32 3.69-10.83 5.77-1.09.65-4.03 2.52-4.62 2.95-.44.32-1.42.11-1.96.51-3.66 2.76-5.38 8.35-8.72 11.71-1.5 1.51-8.18 5.62-7.69 7.76.45 1.94 32.23 3.47 36.99 4 3.62.4 18.82-.24 20.67 3.3 1.82 3.46-1.25 4.68-4.24 5.82-7.42 2.85-16.77 3.52-24.58 4.92-5.51.98-28.1 2.39-31.03 7.87-3.02 5.66.65 9.54 4.87 10.31 4.61.86 11.28-1.09 15.79-1.74 3.67-.53 27.12-6.34 28.32-.94 1.31 5.88-26.72 10.82-29.49 11.57-5.31 1.42-14.26 1.68-18.94 4.4-4.19 2.45-2.62 2.73-1.46 6.75 4.03 13.88 5.46 11.17 17.73 8.05 4.7-1.2 10.73-3.33 15.22-.75 5.35 3.07 5.06 6.92.27 9.57-3.29 1.82-10.16 2.25-13.85 2.79-4.31.63-8.67.85-13.02.9-1.28.01-6.87-.92-8.09-.09-4.79 3.23 6.79 20.05 11.79 20.71 2.42.31 6.36-1.34 8.77-1.81 8.42-1.64 16.97-2.5 25.42-4.06 4.76-.88 27.03-7.39 23.04 4.15-2.21 6.37-18.32 9.58-23.66 11.4a239.93 239.93 0 0 1-15.55 4.71c-4.9 1.3-7.76.76-4.49 6.19 3.32 5.52 23.13 22.37 29.35 21.84 5.1-.44 3.2-2.8 8.93.6 2.1 1.26 4.23 3.32 6.05 4.94 7 6.21 14.19 15.18 23.97 16.92 20.88 3.72 49.41-24.23 62.89-37.21 2.68-2.58 12.92-15.23 17.9-12.4 5.24 2.97-3.84 14.78-5.65 17.05-10.06 12.64-22.59 24.77-37.48 31.34-3.97 1.75-15.09 3.43-18.84 6.53-3.73 3.06.08 4.05 4.04 6.65 8.44 5.56 19.72 13.75 30.09 10.35 13.66-4.49 20.99-18.81 28.63-30.05 4.23-6.24 24.08-35.69 24.35-12.6.12 11.5-7.16 24.66-15 32.57-1.46 1.48-10.94 6.2-10.74 7.32.3 1.7 5.98 2.43 7.02 2.66 10.05 2.16 40.24 5.1 44.48-7.84 2.9-8.88-.64-23.07-1.88-32-.39-2.77-2.34-7.23 1.65-8.11 5.11-1.13 9.48 16.71 9.87 19.54.78 5.81-.09 11.86-2.3 17.86-.96 2.63-3.62 4.99-.16 5.4 1.26.15 8.28-6.54 9.38-7.65 5.6-5.7 5.98-12.12 5.52-19.68-1.24-20.39-10.73-40.27-21.76-57.23 13.19 13.68 25.78 27.85 37.96 42.44 3.05 3.65 5.19 8.11 8.19 11.63 4.33 5.08 9.67 9.2 14.17 14.62-1.32-.13-12.82-3.23-13.15-.1-.3 2.85 9.45 7.26 11.44 8.32 8.99 4.76 12.53 5.17 19.6 13.79 17.58 21.46 33.65 43.7 49.38 66.53 7.69 11.15 15.79 22.14 22.57 33.89 3.39 5.89 6.12 12.18 8.7 18.46 1.78 4.32 4.01 17.37 9.55 18.75 6.44 1.62 4.86-5.47 3.55-8.81-2.95-7.53-5.09-14.86-7.19-22.71-3.41-12.78-5.98-25.77-9.71-38.48-4.66-15.85-8.49-31.84-12.33-47.9-2.49-10.43-4.63-21.03-6.24-31.64-1.1-7.28-.82-15.08-2.77-22.22 7.6 6.86 6.12 19.25 18.83 20.14 9.82.68 16.91-7.24 22.53-14.24 4.58-5.7 11.16-14.32 12.05-21.81 1.06-8.94-6.43-2.55-12.02-.61-3.6 1.25-13.53 6.97-16.5 3.55-4.15-4.77 10.65-10.98 13.51-12.8 6.3-3.99 13.28-8.85 18.07-14.71 1.89-2.31 9.74-27.45 1.03-24.03-1.1.43-2.64 3.94-3.53 5.18-4.13 5.73-8.82 10.9-13.88 15.81-5.52 5.35-17.57 17.94-26.78 15.22 3.73-11.3 19.35-17.18 27.79-24.59 5.43-4.75 10.13-10.01 13.35-16.53 1.6-3.24 5.68-12.33 3.73-15.78Z" fill="#02362C" fill-rule="evenodd"/></svg>

<svg width="422.000000" height="408.000000" viewBox="0 0 422 408" fill="none" xmlns="http://www.w3.org/2000/svg" xmlns:xlink="http://www.w3.org/1999/xlink">
	<desc>
			Created with Pixso.
	</desc>
	<defs/>
	<path id="Fill-1" d="M375.91 353.17C358.26 322.17 334.6 293.46 311.84 266.11C318.56 267.96 327.44 266.52 333.57 263.47C340.46 260.04 343.95 254.08 346.74 247.19C347.13 246.21 349.72 236.14 351.61 236.68C355.09 237.69 356.1 259.89 356.47 262.61C357.81 272.3 359.88 281.79 362.05 291.32C366.73 311.88 371.82 332.49 375.91 353.17ZM300.56 247.93C295.64 248.27 291.92 241.31 288.75 237.72C294.06 237.51 316.73 231.24 319.44 236.66C323.84 245.46 305.05 247.6 300.56 247.93ZM189.95 80.11C189.92 83.04 189.92 94.38 185.34 90.86C182.24 88.48 180.55 77.82 179.59 74.55C177.63 67.89 174.62 59.68 174.96 52.65C175.61 39.35 184.34 48.43 186.33 55.52C188.53 63.35 189.98 71.95 189.95 80.11ZM224.95 138.4C230.74 134.77 228.42 141.54 226.24 144.77C220.12 153.85 218.77 143.33 224.95 138.4ZM211.91 107.28C210.69 100.68 211.29 91.72 213.18 85.41C214.66 80.45 219.39 75.83 222.3 82.17C224.71 87.43 220.15 101.25 217.72 106.42C215.74 110.63 213.02 114.2 211.91 107.28ZM186.76 109.3C187.85 121.97 176.82 126.61 177.18 112.14C177.4 103.29 184.83 96.76 186.76 109.3ZM210.08 185.65C210.42 190.9 199.37 209.29 198.58 199.14C198.35 196.25 209.49 180.91 210.08 185.65ZM177.69 167.92C173.91 170.37 163.52 178.55 159.59 176.9C153.32 174.25 160.49 166.83 163.28 164.92C166.32 162.83 174.68 157.72 178.88 158.36C186.58 159.54 181.58 165.15 177.69 167.92ZM120.93 92.17C111.56 96.16 108.26 85 106.24 78.34C104.92 73.98 100.24 64.86 105.15 61.75C113.98 56.15 123.83 84.94 120.93 92.17ZM152 93.48C150.57 89.01 149.45 84.44 148.05 79.96C147.22 77.3 142.85 67.91 143.38 65.68C145.04 58.61 150.75 62.14 154.08 67.33C157.49 72.65 161.05 83.76 160.69 89.87C160.36 95.54 155.07 102.13 152 93.48ZM134.71 46.45C132.25 38.67 137.57 32.13 143.67 40.8C150.57 50.6 140.08 60.96 134.71 46.45ZM148.2 183.96C148.56 191.08 124.44 201.8 118.99 198.53C111.81 194.21 126.55 188.84 130.65 186.71C134.11 184.92 147.19 175.81 148.2 183.96ZM105.45 173.36C99.33 175.08 93.05 177.47 86.76 178.34C78.11 179.52 78.18 174.67 84.65 169.57C90.31 165.11 100.88 164.04 107.63 161.34C113.02 159.18 128.66 146.83 132.56 150.66C141.35 159.27 111.23 171.67 105.45 173.36ZM107.08 201.09C107.33 210.76 81.71 214 75.99 214.56C79.83 211.83 105.33 187.75 107.08 201.09ZM58.61 152.32C41.25 151.74 58.69 139.1 64.54 136.77C68.79 135.07 78.78 131.3 83.1 134.86C94.44 144.18 63.08 152.49 58.61 152.32ZM60.58 116.97C60.98 110.97 89.87 101.94 91.5 107.43C92.79 111.75 61.97 129.55 60.58 116.97ZM102.14 124.2C113.6 116.35 129.12 123.73 111.94 132.84C108.56 134.62 99.74 139.44 96 136.69C90.71 132.81 99.11 126.16 102.14 124.2ZM418.31 150.6C415.47 145.57 411.37 138.55 406.67 143.29C404.84 145.13 402.96 152.82 401.72 155.7C397.38 165.8 392.78 177.08 383.64 183.85C378.17 187.89 359.1 194.43 363.89 182.08C367.96 171.53 381.47 162.2 389.62 154.55C393.4 151.01 402.36 143.73 404.33 138.58C405.83 134.66 402.22 125.43 395.75 127.52C392.81 128.46 392.43 137.05 391.36 139.49C389.66 143.35 386.66 146.38 384.01 149.59C379.81 154.67 375.37 162.13 368.77 164.53C360.85 167.41 358.4 162.77 362.47 155.65C366.46 148.7 375.47 144.22 380.97 138.51C383.72 135.67 392.35 127.36 390.25 123.11C385.69 113.86 379.31 127.39 377.04 130.14C375.27 132.29 364.48 146.18 361.11 143.53C357.06 140.34 366.13 127.5 367.79 124.76C371.31 118.97 372.85 119.29 368.4 116.2C365.85 114.43 360.54 112.91 357.73 113.31C350.82 114.29 343.76 120.67 336.64 122.36C333.69 123.06 323.65 122.9 322.43 127.42C320.56 134.36 350.76 151 334.85 154.79C322.55 157.72 310.99 138.67 300.88 146.5C284.9 158.89 310.27 166.43 320.02 169C324.39 170.15 338.78 170.65 336.68 178.38C334.97 184.66 323.03 183.28 318.43 182.5C309.72 181.05 301.83 176.83 293.68 173.69C291.48 172.85 282.64 168.05 279.99 169.09C276.2 170.57 271.6 185.39 273.81 188.89C276.53 193.19 291.51 191.69 296.58 191.8C305.14 191.98 315.63 191.67 322.92 197C330.97 202.89 321.02 203.81 315.52 203.57C303.65 203.05 291.54 198.86 279.91 196.58C275.85 195.78 269.81 193.62 265.78 194.18C259.68 195.02 260.97 195.44 263.48 200.43C269.07 211.55 274.75 212.8 287.13 213.67C292.78 214.06 317.49 210.81 319.43 218.34C313.36 223.12 298.64 220.51 291.47 220.41C286.23 220.33 277.73 221.54 273.18 219C266.97 215.55 259.12 202.65 254.57 197.48C246.5 188.3 238.56 179.17 229.73 170.68C239.37 172.05 248.39 175.1 258.15 172.69C268.83 170.05 279.06 162.92 280.63 151.45C281.21 147.25 280.51 142.95 280.21 138.76C280.11 137.42 280.18 136.05 280.01 134.72C279.32 128.92 279.8 127.03 275.82 131.23C271.28 136 268.14 146.87 260.34 148.89C251.71 151.13 256.34 144.67 259.85 140.89C268.51 131.57 277.99 123.45 279.42 109.65C280.2 102.12 279.76 93.85 278.4 86.34C277.1 79.12 275.79 79.34 273.35 85.26C268.06 98.08 259.8 108.65 248.83 117.22C246.73 118.87 242.01 122.89 238.83 120.62C235.96 118.56 238.05 114.66 238.83 111.71C240.55 105.21 243.03 99.17 245.48 92.92C248.7 84.68 254.3 73.56 254.53 64.69C254.68 58.93 250.01 56.45 245.89 52.84C241.06 48.62 236.74 44.11 233 38.89C230.39 35.26 227.58 29.8 223.66 27.41C217.56 23.7 218.93 28.33 219.39 32.96C219.76 36.66 225.11 73.19 216.44 71.31C207.84 69.45 211.46 35.07 210.27 27.53C208.68 17.53 194.8 18.89 186.4 17.06C181.97 16.1 177.91 15.59 173.71 13.96C172.12 13.34 170.31 10.64 168.52 11.45C164.46 13.3 180.84 28.33 176.58 33.66C169.4 42.66 162.15 18.9 160.1 14.56C158.37 10.92 156.31 6.65 153.88 3.48C150.14 -1.41 149.63 -0.23 144.12 1.41C138.61 3.05 125.45 2.91 121.29 6.55C117.27 10.08 122.4 12.66 125.19 15.87C127.83 18.9 136.39 29.19 129.17 31.32C126.57 32.09 117.12 24.4 114.67 22.82C109.47 19.46 110.59 20.22 106.23 21.32C101.16 22.6 95.45 24.24 90.57 25.97C84.45 28.14 83 29.16 87.58 33.55C92.96 38.68 101.01 41.78 103.66 49.12C104.95 52.29 104.1 55.84 100.09 55.91C95.81 55.98 93.87 50.14 92.22 47.01C90.14 43.05 86.23 33.74 81.15 32.91C77.98 32.39 74.07 36.22 71.39 37.61C69.8 38.44 62.65 40.57 62.07 42.78C61.44 45.2 69.69 50.45 71.93 53.03C77.63 59.62 83.7 67.76 85.86 75.7C87.52 88.64 72.53 72.91 70.17 68.98C67.54 64.63 59.13 42.12 51.6 44.4C49.55 45.02 48.28 50.02 46.6 51.65C44.54 53.66 41.9 54.46 39.44 55.71C35.78 57.55 32.12 59.4 28.61 61.48C27.52 62.13 24.58 64 23.99 64.43C23.55 64.75 22.57 64.54 22.03 64.94C18.37 67.7 16.65 73.29 13.31 76.65C11.81 78.16 5.13 82.27 5.62 84.41C6.07 86.35 37.85 87.88 42.61 88.41C46.23 88.81 61.43 88.17 63.28 91.71C65.1 95.17 62.03 96.39 59.04 97.53C51.62 100.38 42.27 101.05 34.46 102.45C28.95 103.43 6.36 104.84 3.43 110.32C0.41 115.98 4.08 119.86 8.3 120.63C12.91 121.49 19.58 119.54 24.09 118.89C27.76 118.36 51.21 112.55 52.41 117.95C53.72 123.83 25.69 128.77 22.92 129.52C17.61 130.94 8.66 131.2 3.98 133.92C-0.21 136.37 1.36 136.65 2.52 140.67C6.55 154.55 7.98 151.84 20.25 148.72C24.95 147.52 30.98 145.39 35.47 147.97C40.82 151.04 40.53 154.89 35.74 157.54C32.45 159.36 25.58 159.79 21.89 160.33C17.58 160.96 13.22 161.18 8.87 161.23C7.59 161.24 2 160.31 0.78 161.14C-4.01 164.37 7.57 181.19 12.57 181.85C14.99 182.16 18.93 180.51 21.34 180.04C29.76 178.4 38.31 177.54 46.76 175.98C51.52 175.1 73.79 168.59 69.8 180.13C67.59 186.5 51.48 189.71 46.14 191.53C41 193.28 35.84 194.84 30.59 196.24C25.69 197.54 22.83 197 26.1 202.43C29.42 207.95 49.23 224.8 55.45 224.27C60.55 223.83 58.65 221.47 64.38 224.87C66.48 226.13 68.61 228.19 70.43 229.81C77.43 236.02 84.62 244.99 94.4 246.73C115.28 250.45 143.81 222.5 157.29 209.52C159.97 206.94 170.21 194.29 175.19 197.12C180.43 200.09 171.35 211.9 169.54 214.17C159.48 226.81 146.95 238.94 132.06 245.51C128.09 247.26 116.97 248.94 113.22 252.04C109.49 255.1 113.3 256.09 117.26 258.69C125.7 264.25 136.98 272.44 147.35 269.04C161.01 264.55 168.34 250.23 175.98 238.99C180.21 232.75 200.06 203.3 200.33 226.39C200.45 237.89 193.17 251.05 185.33 258.96C183.87 260.44 174.39 265.16 174.59 266.28C174.89 267.98 180.57 268.71 181.61 268.94C191.66 271.1 221.85 274.04 226.09 261.1C228.99 252.22 225.45 238.03 224.21 229.1C223.82 226.33 221.87 221.87 225.86 220.99C230.97 219.86 235.34 237.7 235.73 240.53C236.51 246.34 235.64 252.39 233.43 258.39C232.47 261.02 229.81 263.38 233.27 263.79C234.53 263.94 241.55 257.25 242.65 256.14C248.25 250.44 248.63 244.02 248.17 236.46C246.93 216.07 237.44 196.19 226.41 179.23C239.6 192.91 252.19 207.08 264.37 221.67C267.42 225.32 269.56 229.78 272.56 233.3C276.89 238.38 282.23 242.5 286.73 247.92C285.41 247.79 273.91 244.69 273.58 247.82C273.28 250.67 283.03 255.08 285.02 256.14C294.01 260.9 297.55 261.31 304.62 269.93C322.2 291.39 338.27 313.63 354 336.46C361.69 347.61 369.79 358.6 376.57 370.35C379.96 376.24 382.69 382.53 385.27 388.81C387.05 393.13 389.28 406.18 394.82 407.56C401.26 409.18 399.68 402.09 398.37 398.75C395.42 391.22 393.28 383.89 391.18 376.04C387.77 363.26 385.2 350.27 381.47 337.56C376.81 321.71 372.98 305.72 369.14 289.66C366.65 279.23 364.51 268.63 362.9 258.02C361.8 250.74 362.08 242.94 360.13 235.8C367.73 242.66 366.25 255.05 378.96 255.94C388.78 256.62 395.87 248.7 401.49 241.7C406.07 236 412.65 227.38 413.54 219.89C414.6 210.95 407.11 217.34 401.52 219.28C397.92 220.53 387.99 226.25 385.02 222.83C380.87 218.06 395.67 211.85 398.53 210.03C404.83 206.04 411.81 201.18 416.6 195.32C418.49 193.01 426.34 167.87 417.63 171.29C416.53 171.72 414.99 175.23 414.1 176.47C409.97 182.2 405.28 187.37 400.22 192.28C394.7 197.63 382.65 210.22 373.44 207.5C377.17 196.2 392.79 190.32 401.23 182.91C406.66 178.16 411.36 172.9 414.58 166.38C416.18 163.14 420.26 154.05 418.31 150.6Z" fill="#02362C" fill-opacity="1.000000" fill-rule="evenodd"/>
</svg>
